Newaita-dark/apps/scalable/hp-logo.svg

<?xml version="1.0" encoding="UTF-8"?>
<svg xmlns="http://www.w3.org/2000/svg" xmlns:xlink="http://www.w3.org/1999/xlink" width="512pt" height="512pt" viewBox="0 0 512 512" version="1.1">
<defs>
<linearGradient id="linear0" gradientUnits="userSpaceOnUse" x1="254" y1="233.5" x2="254" y2="254.666672" gradientTransform="matrix(1.000095,0,0,1.000095,-0.000061041,215.020562)">
<stop offset="0" style="stop-color:rgb(0%,0%,0%);stop-opacity:0.27451;"/>
<stop offset="1" style="stop-color:rgb(0%,0%,0%);stop-opacity:0;"/>
</linearGradient>
<radialGradient id="radial0" gradientUnits="userSpaceOnUse" cx="450.908936" cy="189.579361" fx="450.908936" fy="189.579361" r="21.166656" gradientTransform="matrix(0.00000278673,-1.250119,-2.250215,-0.00000162462,849.966879,1017.525321)">
<stop offset="0" style="stop-color:rgb(0%,0%,0%);stop-opacity:0.313725;"/>
<stop offset="0.222222" style="stop-color:rgb(0%,0%,0%);stop-opacity:0.27451;"/>
<stop offset="1" style="stop-color:rgb(0%,0%,0%);stop-opacity:0;"/>
</radialGradient>
<radialGradient id="radial1" gradientUnits="userSpaceOnUse" cx="450.908936" cy="189.579361" fx="450.908936" fy="189.579361" r="21.166656" gradientTransform="matrix(-0.00000278673,1.250119,2.250215,0.00000162462,-339.272325,-120.439662)">
<stop offset="0" style="stop-color:rgb(0%,0%,0%);stop-opacity:0.313725;"/>
<stop offset="0.222222" style="stop-color:rgb(0%,0%,0%);stop-opacity:0.27451;"/>
<stop offset="1" style="stop-color:rgb(0%,0%,0%);stop-opacity:0;"/>
</radialGradient>
<radialGradient id="radial2" gradientUnits="userSpaceOnUse" cx="450.908936" cy="189.579361" fx="450.908936" fy="189.579361" r="21.166656" gradientTransform="matrix(-0.00000278673,-1.250119,2.250215,-0.00000162462,-339.272325,1017.525321)">
<stop offset="0" style="stop-color:rgb(0%,0%,0%);stop-opacity:0.313725;"/>
<stop offset="0.222222" style="stop-color:rgb(0%,0%,0%);stop-opacity:0.27451;"/>
<stop offset="1" style="stop-color:rgb(0%,0%,0%);stop-opacity:0;"/>
</radialGradient>
<radialGradient id="radial3" gradientUnits="userSpaceOnUse" cx="450.908936" cy="189.579361" fx="450.908936" fy="189.579361" r="21.166656" gradientTransform="matrix(0.00000278673,1.250119,-2.250215,0.00000162462,849.966856,-120.43967)">
<stop offset="0" style="stop-color:rgb(0%,0%,0%);stop-opacity:0.313725;"/>
<stop offset="0.222222" style="stop-color:rgb(0%,0%,0%);stop-opacity:0.27451;"/>
<stop offset="1" style="stop-color:rgb(0%,0%,0%);stop-opacity:0;"/>
</radialGradient>
<linearGradient id="linear1" gradientUnits="userSpaceOnUse" x1="254" y1="233.5" x2="254" y2="-168.666672" gradientTransform="matrix(1.000095,0,0,1.000095,0,215.020527)">
<stop offset="0" style="stop-color:rgb(12.941176%,58.823529%,95.294118%);stop-opacity:1;"/>
<stop offset="1" style="stop-color:rgb(25.882353%,64.705882%,96.078431%);stop-opacity:1;"/>
</linearGradient>
<linearGradient id="linear2" gradientUnits="userSpaceOnUse" x1="254" y1="-168.666687" x2="253.999985" y2="233.499969" gradientTransform="matrix(3.779528,0,0,3.779528,0.0000208025,812.598572)">
<stop offset="0" style="stop-color:rgb(87.843137%,87.843137%,87.843137%);stop-opacity:1;"/>
<stop offset="1" style="stop-color:rgb(93.333333%,93.333333%,93.333333%);stop-opacity:1;"/>
</linearGradient>
<linearGradient id="linear3" gradientUnits="userSpaceOnUse" x1="232.370163" y1="183.329132" x2="232.370163" y2="-120.774887" gradientTransform="matrix(3.946018,0,0,3.946018,-36.936954,811.698059)">
<stop offset="0" style="stop-color:rgb(12.941176%,58.823529%,95.294118%);stop-opacity:1;"/>
<stop offset="1" style="stop-color:rgb(25.882353%,64.705882%,96.078431%);stop-opacity:1;"/>
</linearGradient>
</defs>
<g id="surface1">
<path style=" stroke:none;fill-rule:nonzero;fill:url(#linear0);" d="M 82.027344 448.542969 L 428.664062 448.542969 L 428.664062 469.710938 L 82.027344 469.710938 Z M 82.027344 448.542969 "/>
<path style=" stroke:none;fill-rule:nonzero;fill:url(#radial0);" d="M 428.664062 448.542969 L 471.003906 448.542969 L 471.003906 427.375 L 428.664062 427.375 Z M 428.664062 448.542969 "/>
<path style=" stroke:none;fill-rule:nonzero;fill:url(#radial1);" d="M 82.027344 448.542969 L 39.691406 448.542969 L 39.691406 469.710938 L 82.027344 469.710938 Z M 82.027344 448.542969 "/>
<path style=" stroke:none;fill-rule:nonzero;fill:url(#radial2);" d="M 82.027344 448.542969 L 39.691406 448.542969 L 39.691406 427.375 L 82.027344 427.375 Z M 82.027344 448.542969 "/>
<path style=" stroke:none;fill-rule:nonzero;fill:url(#radial3);" d="M 428.664062 448.542969 L 471.003906 448.542969 L 471.003906 469.710938 L 428.664062 469.710938 Z M 428.664062 448.542969 "/>
<path style=" stroke:none;fill-rule:nonzero;fill:url(#linear1);" d="M 58.214844 46.335938 C 57.9375 46.335938 57.667969 46.34375 57.394531 46.359375 C 56.851562 46.386719 56.316406 46.441406 55.789062 46.519531 C 55 46.640625 54.230469 46.816406 53.484375 47.050781 C 52.984375 47.203125 52.496094 47.382812 52.023438 47.582031 C 51.070312 47.980469 50.167969 48.472656 49.324219 49.042969 C 48.902344 49.328125 48.496094 49.632812 48.101562 49.953125 C 47.710938 50.277344 47.335938 50.617188 46.976562 50.976562 C 46.617188 51.335938 46.277344 51.710938 45.953125 52.105469 C 45.792969 52.300781 45.636719 52.5 45.484375 52.703125 C 45.179688 53.109375 44.894531 53.53125 44.628906 53.96875 C 44.234375 54.625 43.882812 55.308594 43.582031 56.023438 C 43.480469 56.261719 43.386719 56.5 43.296875 56.742188 C 43.296875 56.746094 43.296875 56.746094 43.296875 56.746094 C 43.207031 56.988281 43.125 57.234375 43.050781 57.484375 C 42.972656 57.730469 42.902344 57.984375 42.835938 58.238281 C 42.707031 58.746094 42.601562 59.261719 42.519531 59.789062 C 42.480469 60.054688 42.445312 60.320312 42.417969 60.585938 C 42.363281 61.121094 42.335938 61.664062 42.335938 62.214844 L 42.335938 432.667969 C 42.335938 441.460938 49.417969 448.542969 58.214844 448.542969 L 449.835938 448.542969 C 458.628906 448.542969 465.710938 441.460938 465.710938 432.667969 L 465.710938 62.214844 C 465.710938 58.914062 464.714844 55.859375 463.007812 53.324219 C 462.722656 52.902344 462.417969 52.496094 462.09375 52.105469 C 461.769531 51.710938 461.429688 51.335938 461.070312 50.976562 C 460.710938 50.617188 460.335938 50.277344 459.945312 49.953125 C 459.554688 49.632812 459.144531 49.328125 458.722656 49.042969 C 457.878906 48.472656 456.976562 47.980469 456.027344 47.582031 C 455.550781 47.382812 455.0625 47.203125 454.566406 47.050781 C 453.820312 46.816406 453.046875 46.640625 452.257812 46.519531 C 451.730469 46.441406 451.195312 46.386719 450.652344 46.359375 C 450.382812 46.34375 450.109375 46.335938 449.835938 46.335938 Z M 58.214844 46.335938 "/>
<path style="fill-rule:nonzero;fill:url(#linear2);stroke-width:11.338583;stroke-linecap:round;stroke-linejoin:round;stroke:rgb(12.941177%,12.941177%,12.941177%);stroke-opacity:1;stroke-miterlimit:4;" d="M 789.993499 175.11124 L 677.740433 497.846185 C 534.486389 590.258625 440.007217 751.242276 440.007217 935.122364 C 440.007217 1141.190294 558.681914 1318.51589 731.682135 1402.779501 L 629.998926 1695.118725 L 929.999821 1695.118725 L 1014.455343 1452.322016 C 1276.753143 1425.262591 1480.001461 1204.801349 1480.001461 935.122364 C 1480.001461 662.490904 1272.280145 440.154841 1005.834119 417.096018 L 1089.994393 175.11124 Z M 789.993499 175.11124 " transform="matrix(0.264609,0,0,0.264609,0,0)"/>
<path style=" stroke:none;fill-rule:nonzero;fill:rgb(100%,100%,100%);fill-opacity:0.392157;" d="M 58.214844 46.335938 C 49.417969 46.335938 42.335938 53.417969 42.335938 62.214844 L 42.335938 64.859375 C 42.335938 56.066406 49.417969 48.984375 58.214844 48.984375 L 449.835938 48.984375 C 458.628906 48.984375 465.710938 56.066406 465.710938 64.859375 L 465.710938 62.214844 C 465.710938 53.417969 458.628906 46.335938 449.835938 46.335938 Z M 58.214844 46.335938 "/>
<path style=" stroke:none;fill-rule:nonzero;fill:rgb(1.176471%,1.176471%,1.176471%);fill-opacity:0.235294;" d="M 58.214844 448.539062 C 49.417969 448.539062 42.335938 441.457031 42.335938 432.664062 L 42.335938 430.015625 C 42.335938 438.8125 49.417969 445.894531 58.214844 445.894531 L 449.835938 445.894531 C 458.628906 445.894531 465.710938 438.8125 465.710938 430.015625 L 465.710938 432.664062 C 465.710938 441.457031 458.628906 448.539062 449.835938 448.539062 Z M 58.214844 448.539062 "/>
<path style=" stroke:none;fill-rule:nonzero;fill:rgb(12.941177%,12.941177%,12.941177%);fill-opacity:1;" d="M 58.214844 44.839844 C 48.613281 44.839844 40.835938 52.613281 40.835938 62.214844 L 40.835938 432.667969 C 40.835938 442.265625 48.613281 450.042969 58.214844 450.042969 L 449.832031 450.042969 C 459.433594 450.042969 467.210938 442.265625 467.210938 432.667969 L 467.210938 62.214844 C 467.210938 52.613281 459.433594 44.839844 449.832031 44.839844 Z M 58.214844 47.839844 L 449.832031 47.839844 C 457.824219 47.839844 464.210938 54.222656 464.210938 62.214844 L 464.210938 432.667969 C 464.210938 440.65625 457.824219 447.042969 449.832031 447.042969 L 58.214844 447.042969 C 50.222656 447.042969 43.839844 440.65625 43.839844 432.667969 L 43.839844 62.214844 C 43.839844 54.222656 50.222656 47.839844 58.214844 47.839844 Z M 58.214844 47.839844 "/>
<path style="fill-rule:nonzero;fill:url(#linear3);stroke-width:11.338583;stroke-linecap:butt;stroke-linejoin:miter;stroke:rgb(12.941177%,12.941177%,12.941177%);stroke-opacity:1;stroke-miterlimit:4;" d="M 830.737641 335.120574 C 752.703751 560.792933 631.785173 930.501742 558.327617 1134.045307 C 563.966843 1135.698693 569.532256 1135.019623 575.348631 1135.108198 C 607.456786 1134.901524 639.668279 1135.18201 671.865009 1135.108198 C 676.219909 1135.108198 675.673701 1128.819428 677.518997 1126.044102 C 716.21117 1016.876372 760.941153 893.241518 799.810475 784.162362 C 802.128167 777.401196 804.711582 770.182397 807.767393 763.716479 C 827.947553 764.070776 847.832466 763.435994 867.924053 763.716479 C 825.733198 882.051641 778.257414 1016.093966 735.343203 1134.045307 C 739.860488 1135.802029 744.333486 1135.019623 749.057445 1135.12296 C 782.730412 1134.842475 816.314805 1135.610118 850.002535 1135.12296 C 888.118976 1027.608615 932.937533 905.27285 971.260647 797.758505 C 979.409475 775.821623 980.575703 747.714069 966.66955 729.689215 C 937.174333 691.469437 871.688457 685.092093 829.335216 683.51252 C 854.770781 611.457389 912.137353 442.708731 949.205665 335.120574 Z M 1076.737784 699.086821 L 1076.737784 699.131108 C 1075.925854 700.902592 1075.379646 705.287016 1074.552954 707.028976 C 998.940092 919.119954 867.761667 1293.656058 781.490373 1535.124153 L 877.62293 1535.124153 C 924.39012 1409.171607 995.825231 1215.902652 1024.493755 1136.038227 C 1066.581274 1135.211534 1108.432594 1135.610118 1150.623449 1134.81295 C 1177.358102 1133.882921 1217.747948 1117.821462 1226.634895 1091.736353 C 1262.167921 991.70653 1297.700947 892.606736 1332.112033 792.11928 C 1337.751258 776.943563 1341.205653 760.291609 1336.658843 744.510635 C 1330.635796 724.330474 1312.256644 709.007134 1292.460306 703.633631 C 1275.232619 698.245365 1257.916358 700.592582 1240.245801 700.208761 C 1186.215525 700.134949 1130.782823 699.647791 1076.752547 699.086821 Z M 1173.254163 762.594539 C 1192.209047 763.03741 1212.463019 762.402628 1230.000716 762.697875 C 1193.729571 866.22638 1156.823645 969.828697 1121.098708 1073.667211 C 1100.844736 1075.054874 1080.000268 1073.741023 1059.716771 1073.667211 C 1096.652222 970.773489 1133.026703 867.924053 1169.844056 764.838419 C 1170.670748 763.923152 1170.995521 763.111222 1173.254163 762.594539 Z M 1173.254163 762.594539 " transform="matrix(0.264609,0,0,0.264609,0,0)"/>
</g>
</svg>

<svg xmlns="http://www.w3.org/2000/svg" width="512pt" height="512pt" viewBox="0 0 512 512"><defs><linearGradient id="a" gradientUnits="userSpaceOnUse" x1="254" y1="233.5" x2="254" y2="254.667" gradientTransform="matrix(1.0001 0 0 1.0001 0 215.02)"><stop offset="0" stop-opacity=".275"/><stop offset="1" stop-opacity="0"/></linearGradient><radialGradient id="b" gradientUnits="userSpaceOnUse" cx="450.909" cy="189.579" fx="450.909" fy="189.579" r="21.167" gradientTransform="matrix(0 -1.25012 -2.25021 0 849.967 1017.525)"><stop offset="0" stop-opacity=".314"/><stop offset=".222" stop-opacity=".275"/><stop offset="1" stop-opacity="0"/></radialGradient><radialGradient id="c" gradientUnits="userSpaceOnUse" cx="450.909" cy="189.579" fx="450.909" fy="189.579" r="21.167" gradientTransform="matrix(0 1.25012 2.25021 0 -339.272 -120.44)"><stop offset="0" stop-opacity=".314"/><stop offset=".222" stop-opacity=".275"/><stop offset="1" stop-opacity="0"/></radialGradient><radialGradient id="d" gradientUnits="userSpaceOnUse" cx="450.909" cy="189.579" fx="450.909" fy="189.579" r="21.167" gradientTransform="matrix(0 -1.25012 2.25021 0 -339.272 1017.525)"><stop offset="0" stop-opacity=".314"/><stop offset=".222" stop-opacity=".275"/><stop offset="1" stop-opacity="0"/></radialGradient><radialGradient id="e" gradientUnits="userSpaceOnUse" cx="450.909" cy="189.579" fx="450.909" fy="189.579" r="21.167" gradientTransform="matrix(0 1.25012 -2.25021 0 849.967 -120.44)"><stop offset="0" stop-opacity=".314"/><stop offset=".222" stop-opacity=".275"/><stop offset="1" stop-opacity="0"/></radialGradient><linearGradient id="f" gradientUnits="userSpaceOnUse" x1="254" y1="233.5" x2="254" y2="-168.667" gradientTransform="matrix(1.0001 0 0 1.0001 0 215.02)"><stop offset="0" stop-color="#2196f3"/><stop offset="1" stop-color="#42a5f5"/></linearGradient><linearGradient id="g" gradientUnits="userSpaceOnUse" x1="254" y1="-168.667" x2="254" y2="233.5" gradientTransform="matrix(3.77953 0 0 3.77953 0 812.599)"><stop offset="0" stop-color="#e0e0e0"/><stop offset="1" stop-color="#eee"/></linearGradient><linearGradient id="h" gradientUnits="userSpaceOnUse" x1="232.37" y1="183.329" x2="232.37" y2="-120.775" gradientTransform="matrix(3.94602 0 0 3.94602 -36.937 811.698)"><stop offset="0" stop-color="#2196f3"/><stop offset="1" stop-color="#42a5f5"/></linearGradient></defs><path d="M82.027 448.543h346.637v21.168H82.027zm0 0" fill="url(#a)"/><path d="M428.664 448.543h42.34v-21.168h-42.34zm0 0" fill="url(#b)"/><path d="M82.027 448.543H39.691v21.168h42.336zm0 0" fill="url(#c)"/><path d="M82.027 448.543H39.691v-21.168h42.336zm0 0" fill="url(#d)"/><path d="M428.664 448.543h42.34v21.168h-42.34zm0 0" fill="url(#e)"/><path d="M58.215 46.336a16.67 16.67 0 0 0-2.426.184c-.789.12-1.559.296-2.305.53-.5.153-.988.333-1.46.532a15.49 15.49 0 0 0-2.7 1.461 17.4 17.4 0 0 0-1.222.91c-.391.324-.766.664-1.125 1.024a15.595 15.595 0 0 0-1.493 1.726 15.61 15.61 0 0 0-1.902 3.32c-.102.239-.195.477-.285.72v.003c-.09.242-.172.488-.246.738a15.276 15.276 0 0 0-.531 2.305 16.014 16.014 0 0 0-.184 2.426v370.453a15.843 15.843 0 0 0 15.879 15.875h391.62a15.843 15.843 0 0 0 15.876-15.875V62.215c0-3.3-.996-6.356-2.703-8.89-.285-.423-.59-.829-.914-1.22a15.595 15.595 0 0 0-2.149-2.152c-.39-.32-.8-.625-1.222-.91a15.597 15.597 0 0 0-4.157-1.992 15.606 15.606 0 0 0-3.914-.692c-.27-.015-.543-.023-.816-.023zm0 0" fill="url(#f)"/><path d="M789.993 175.111L677.74 497.846C534.486 590.26 440.007 751.242 440.007 935.122c0 206.068 118.675 383.394 291.675 467.658L630 1695.119h300l84.456-242.797c262.298-27.06 465.546-247.52 465.546-517.2 0-272.631-207.72-494.967-474.167-518.026l84.16-241.985zm0 0" transform="rotate(.158) scale(.26461)" fill="url(#g)" stroke-width="11.339" stroke-linecap="round" stroke-linejoin="round" stroke="#212121"/><path d="M58.215 46.336a15.844 15.844 0 0 0-15.88 15.879v2.644a15.843 15.843 0 0 1 15.88-15.875h391.62a15.843 15.843 0 0 1 15.876 15.875v-2.644a15.843 15.843 0 0 0-15.875-15.88zm0 0" fill="#fff" fill-opacity=".392"/><path d="M58.215 448.54a15.843 15.843 0 0 1-15.88-15.876v-2.648a15.844 15.844 0 0 0 15.88 15.879h391.62a15.843 15.843 0 0 0 15.876-15.88v2.65a15.843 15.843 0 0 1-15.875 15.874zm0 0" fill="#030303" fill-opacity=".235"/><path d="M58.215 44.84c-9.602 0-17.38 7.773-17.38 17.375v370.453c0 9.598 7.778 17.375 17.38 17.375h391.617c9.602 0 17.379-7.777 17.379-17.375V62.215c0-9.602-7.777-17.375-17.379-17.375zm0 3h391.617a14.31 14.31 0 0 1 14.379 14.375v370.453a14.313 14.313 0 0 1-14.379 14.375H58.215a14.31 14.31 0 0 1-14.375-14.375V62.215A14.308 14.308 0 0 1 58.215 47.84zm0 0" fill="#212121"/><path d="M830.738 335.12c-78.034 225.673-198.953 595.382-272.41 798.925 5.639 1.654 11.204.975 17.02 1.063 32.109-.206 64.32.074 96.517 0 4.355 0 3.809-6.289 5.654-9.064 38.692-109.168 83.422-232.802 122.291-341.882 2.318-6.76 4.902-13.98 7.957-20.446 20.18.355 40.065-.28 60.157 0-42.19 118.336-89.667 252.378-132.58 370.33 4.516 1.756 8.99.974 13.713 1.077 33.673-.28 67.258.487 100.946 0 38.116-107.514 82.935-229.85 121.258-337.364 8.148-21.937 9.315-50.045-4.591-68.07-29.496-38.22-94.982-44.597-137.335-46.176 25.436-72.056 82.802-240.804 119.87-348.392zm246 363.967v.044c-.812 1.772-1.358 6.156-2.185 7.898-75.613 212.091-206.791 586.627-293.063 828.095h96.133c46.767-125.952 118.202-319.221 146.87-399.086 42.088-.826 83.94-.428 126.13-1.225 26.735-.93 67.125-16.992 76.012-43.077 35.533-100.03 71.066-199.13 105.477-299.617 5.64-15.175 9.094-31.827 4.547-47.608-6.023-20.18-24.402-35.504-44.199-40.877-17.227-5.389-34.544-3.041-52.214-3.425-54.03-.074-109.463-.561-163.493-1.122zm96.516 63.508c18.955.442 39.209-.192 56.747.103-36.271 103.528-73.177 207.13-108.902 310.97-20.254 1.387-41.099.073-61.382 0 36.935-102.895 73.31-205.744 110.127-308.83.827-.915 1.152-1.727 3.41-2.243zm0 0" transform="rotate(.158) scale(.26461)" fill="url(#h)" stroke-width="11.339" stroke="#212121"/></svg>
